X:199
T:Peggy White. VWMLa.199
%%VWML:Anon2-3049-p123-0
F:http://www.vwml.org/record/Anon2/3049/p123
S:Anon. MS, late 18thC, Vaughan Williams Mem. Library
O:England;Yorkshire
Z:vmp/efdss.Simon Wilson. Reviewed PJH 2008.
M:2/4
L:1/8
Q:1/4=120
K:F
f2 ge|fc AF|(E>G) Ac|BG G2|\
f2 ge|fc AF|(A,>C) GB|AF F2:|
|:(E>G) GB|AF Ac|(d/c/B) df|ec c2|\
(bg) (af)|(ge) (fc)|dB Gc|AF F2:|
